!!!COM:	Bach, Johann Sebastian
!!!CDT:	1685/02/21/-1750/07/28/
!!!OTL@@DE:	Wie sch&ouml;n leuchtet der Morgenstern
!!!SCT:	BWV 436
!!!PC#:	278
!!!AGN:	chorale
**kern	**kern	**kern	**kern
*ICvox	*ICvox	*ICvox	*ICvox
*Ibass	*Itenor	*Ialto	*Isoprn
*I"Bass	*I"Tenor	*I"Alto	*I"Soprano
*>[A,A,B]	*>[A,A,B]	*>[A,A,B]	*>[A,A,B]
*>norep[A,B]	*>norep[A,B]	*>norep[A,B]	*>norep[A,B]
*>A	*>A	*>A	*>A
*clefF4	*clefGv2	*clefG2	*clefG2
*k[f#c#g#d#]	*k[f#c#g#d#]	*k[f#c#g#d#]	*k[f#c#g#d#]
*E:	*E:	*E:	*E:
*M4/4	*M4/4	*M4/4	*M4/4
*met(c)	*met(c)	*met(c)	*met(c)
*MM100	*MM100	*MM100	*MM100
4E	4G#	4B	4e
=1	=1	=1	=1
4D#	4F#	4B	4b
4E	8EL	4B	4g#
.	8F#J	.	.
4C#	8G#L	4c#	4e
.	8A#J	.	.
4G#	4B	4d#	4b
=2	=2	=2	=2
4E	4B	4g#	4cc#
4F#	4A#	4f#	4cc#
4BB;	4d#;	4f#;	4b;
4E	4e	4g#	4b
=3	=3	=3	=3
4AnX	4e	4a	4cc#
8G#L	4f#	4a	4dd#
8F#J	.	.	.
8G#L	4B	4g#	4ee
8A#J	.	.	.
4B	4B	4f#	4dd#
=4	=4	=4	=4
4F#	4B	8f#L	4cc#
.	.	8g#J	.
4FF#	4A#	8f#L	4cc#
.	.	8eJ	.
4BB;	4B;	4d#;	4b;
4E	4B	4e	4g#
=5	=5	=5	=5
4AA	8AnXL	4e	4cc#
.	8G#J	.	.
4BB	4F#	4d#	4b
8C#L	4c#	8eL	4a
8D#J	.	8f#J	.
4E	4B	8g#L	4g#
.	.	8eJ	.
=6	=6	=6	=6
2BB	4.B	4e	2f#
.	.	4d#	.
.	8A	.	.
2E;	2G#;	2B;	2e;
=7:|!	=7:|!	=7:|!	=7:|!
*>B	*>B	*>B	*>B
2D#	2B	2f#	2b
2E;	2B;	2e;	2g#;
=8	=8	=8	=8
2BB	2d#	2f#	2b
2C#;	2c#;	2e;	2g#;
=9	=9	=9	=9
4F#	4c#	4f#	4a
4G#	4B	4e	4g#
8AL	4B	4d#	4f#
8G#J	.	.	.
8F#L	4B	4e	4g#
8EJ	.	.	.
=10	=10	=10	=10
4D#	4B	4f#	4a
4E	4B	4e	4g#
8BBL	4B	4d#	4f#
8BJ	.	.	.
8AL	4B	4e	4g#
8G#J	.	.	.
=11	=11	=11	=11
4F#	8c#L	4f#	4a
.	8d#J	.	.
8C#L	[4e	8eL	4g#
8BBJ	.	8d#J	.
4AA	8eL]	4c#	2f#
.	8c#J	.	.
4BB	8BL	4d#	.
.	8AJ	.	.
=12	=12	=12	=12
2E;	2G#;	2B;	2e;
4C#	8c#L	4g#	4ee
.	8BJ	.	.
4D#	4A#	4f##	4dd#
=13	=13	=13	=13
8E#L	4G#	4g#	4cc#
8F##J	.	.	.
4G#	4d#	8g#L	4b
.	.	8f#XJ	.
8C#L	4c#	4enX	4a
8D#J	.	.	.
4E	4B	4e	4g#
=14	=14	=14	=14
4AA#	4c#	4e	2f#
4BB	8BL	4d#	.
.	8AJ	.	.
4EE;	4G#;	4B;	4e;
==	==	==	==
*-	*-	*-	*-
!!!hum2abc: -Q ''
!!!title: @{PC#}. @{OTL@@DE}
!!!YOR1: 371 vierstimmige Choralges&auml;nge von Johann Sebastian Bach, 
!!!YOR2: 4th ed. by Alfred D&ouml;rffel (Leipzig: Breitkopf und H&auml;rtel, 
!!!YOR2: c.1875). 178 pp. Plate "V.A.10".  reprint: J.S. Bach, 371 Four-Part 
!!!YOR4: Chorales (New York: Associated Music Publishers, Inc., c.1940).
!!!SMS: B&H, 4th ed, Alfred D&ouml;rffel, c.1875, plate V.A.10
!!!EED:  Craig Stuart Sapp
!!!EEV:  2009/05/22
